X:1
T:Love Theme from "The Godfather'
T:Speak Softly, Love Love Theme from "The Godfather" 
T:Arr. Skyler Ryu
C:Arr. Skyler Ryu
%%score 1 2 { 3 | ( 4 5 ) }
L:1/8
Q:1/4=66
M:4/4
K:F
V:1 treble nm="Violin" snm="Vln."
V:2 bass nm="Violoncello" snm="Vc."
V:3 treble nm="Piano" snm="Pno."
V:4 bass 
V:5 bass 
V:1
 z8 | z8 | !///!f4 !///!e2 !///!d2 | !///!a4 z Adf | edfd edBc | A4- AAdf | edfd edA^G | %7
 G4- GGB^c | e4- eGB^c | d4- dDFc | BAcB BAA^C | D4 z4 | CGBG e4 | FAcA f4 | _EGBG _e4 | %15
 z A,^CE A4 | z A,2 A, z B,2 B, | z DEF A4 | z A,2 A, z D2 D | z D2 D- D4 | z GB^c e4 | z dAF D4 | %22
 z A2 A z A,2 A, | z D2 D z dd^c | c4 e2 dB | A4- AAcA | G4- GGB^G | A4 z Adf | edfd edBc | %29
 A4- AAdf | edfd edA_A | G4 z GB^c | e4- eGB^c | d4- dDFc | BAcB BAA^c | z ffe edef | z ddc cBcd | %37
 z ggf fee^c | d8 |] %39
V:2
 z8 | z2 F,,2 E,,2 D,,2 | z2 F2 E2 D2 | A4 z4 | z A,2 A, z B,2 B, | z DEF A2 D2 | z A,2 A, z D2 D | %7
 G,A,/B,/- B,D G4 | E2 GA B4 | D2 EF A4 | z4 D,2 E,2 | F,4 z DD_D | C4 E2 DB, | A,4- A,A,CA, | %14
 G,4- G,G,B,_A, | A,4 z A,DF | EDFD EDB,C | A,4- A,A,DF | EDFD EDA,_A, | G,4- G,G,B,_D | %20
 E4- EG,B,_D | D4- DD,F,C | B,A,CB, B,A,A,_D, | D,4 A,4 | C,G,B,G, E4 | F,A,CA, F4 | %26
 _E,G,B,G, _E4 | A,2 ^C2 E2 z2 | z A,2 A, z B,2 B, | z A,2 A,- A,4 | z A,2 A, z D2 D | z D2 D- D4 | %32
 z G,B,^C E4 | z DA,F, D,4 | z A,/A,/ A,/A,/A, z ^C,/C,/ C,/C,/C, | D,8 | G,,8 | A,,8 | D,8 |] %39
V:3
 z DFA, [B,E]2 D2 | z D[FA][A,D] [B,EG]4 | z DFA, [B,E]2 D2 | z D[FA][A,D] [B,EG]4 | %4
[K:bass] z F, [F,A,]2 z [G,B,] [G,B,G]2 | z [F,D][G,E][A,F] [A,A][A,D] [FA]2 | z A,[DF]A, z A,DA, | %7
[K:treble] GD/G/ Bd [GBdg]4 |[K:bass] G,D,G,A, [D,G,B,]D, D2 | DA,DF [A,A]4 | %10
 [D,B,]A,CB, [D,B,]A,[^C,E,A,]C, | [D,D][E,E][F,F][A,A] !arpeggio![Dd]4 |[K:treble] [G,CEG]8 | %13
 [CFAc]8 | [C_EGB]8 | [A,^CEA]4 z Adf | edfd edBc | A4 z Adf | edfd edA_A | G4- GGB^c | e4- eGB^c | %21
 d4- dDFc | BAcB BAA^C | D4 z d'd'^c' | c'4 e'2 d'b | a4- aac'a | g4- ggb^g | a2 z/ E/A/^c/ eAdf | %28
 e/A/d/A/ f/A/d/A/ e/A/d/A/ B/D/c/D/ | Af/4g/4f/4e/4 d/4e/4d/4B/4 A2 Adf | %30
 e/A/d/A/ f/A/d/A/ e/A/d/A/ A/D/^G/D/ | GB,/4A,/4B,/4C/4 D/4C/4D/4^F/4 G2 GB^c | %32
 e2 z (6:4:6B/4^c/4e/4g/4b/4^c'/4 e'GBc | dd'/4a/4f/4d/4 A/4F/4D/4A,/4 z z DFc | BAcB BAA^c | %35
 z [Af][Af][Ge] [Ge][Fd][Ge][Af] | z [Bd][Bd][Ac] [Ac][GB][Ac][Bd] | %37
 z [Bg][Bg][Af] [Af][Ge][Ge][E^c] | !arpeggio![FAd]8 |] %39
V:4
 [D,,D,]8 | [D,,D,]8 | [D,,D,]8 | [D,,D,]8 | [D,,D,]4 [D,,D,]4 | [D,,D,]8 | [D,,D,]4 [F,,F,]4 | %7
 [G,,G,]2 [B,,B,]2 [D,D]4 | G,,8 | [D,,D,]8 | z4 F,,2 A,,2 | D,,2 A,,2 D,2 z z | C,G,B,G, E4 | %13
 F,A,CA, F4 | _E,G,B,G, _E4 | z A,,^C,E, A,4 | z [F,A,]2 [F,A,] z [G,B,]2 [G,B,] | %17
 z [F,A,]2 [F,A,]- [D,F,A,]4 | z [F,A,]2 [F,A,] z [A,D]2 [A,D] | z [B,D]2 [B,D]- [B,D]4 | %20
 z G,B,^C E4 | z DA,F, D,4 | z [E,A,]2 [E,A,] z [E,A,]2 [E,A,] | z [F,A,]2 [F,A,]- [F,A,]4 | %24
[K:treble] CGBG e4 | FAcA f4 | _EGBG _e4 |[K:bass]!mp! A,E,/!<(!A,/ ^C/ z/ z z4!<)! | %28
 [D,,D,] [F,A,]2 [F,A,] [D,,D,] [G,B,]2 [G,B,] | [D,,D,][F,A,][F,A,][F,A,]- [D,F,A,]4 | %30
 [D,,D,] [F,A,]2 [F,A,] [F,,F,] [A,D]2 [A,D] | [G,,,G,,][B,,D,][B,,D,][B,,D,]- [G,,B,,D,]4 | %32
 z G,,/4B,,/4^C,/4E,/4 (5:4:5G,/4B,/4^C/4E/4G/4 z z4 | z z2 F,/4D,/4A,,/4F,,/4 D,,4 | %34
 [A,,,A,,] [E,A,]2 [E,A,] [^C,,^C,] [E,A,]2 [E,A,] | [D,,D,] [F,A,]2 [F,A,]- [D,F,A,]4 | %36
 [G,,,G,,] [B,,D,]2 [B,,D,]- [G,,B,,D,]4 | [A,,A,] [E,G,]2 [E,G,]- [A,,E,G,]2 G,/A,/^C/E/ | %38
 !arpeggio![D,A,D]8 |] %39
V:5
 x8 | x8 | x8 | x8 | x8 | x8 | x8 | x8 | x8 | x8 | x8 | x8 | x8 | x8 | x8 | x8 | D,4 D,4 | D,4 x4 | %18
 D,4 F,4 | G,4 G,4 | x8 | x8 | A,,4 ^C,4 | D,4 D,4 |[K:treble] x8 | x8 | x8 |[K:bass] x8 | x8 | %29
 x8 | x8 | x8 | x8 | x8 | x8 | x8 | x8 | x8 | x8 |] %39

